X: 1905
T: Uşşak Aranağme (Düyek)
C: ?
O: Turkey
F: http://compmusic.upf.edu/node/140
N: ussak--aranagme--duyek--1--
N: makam= ussak
N: form= aranagme
N: usul= duyek = 8/4
M: 8/4
L: 1/16
K: C _2/4B   
Q: 1/4=156
%%MIDI tuningsystem comma53
z2 f2 e2 f2 e4 d2 c2  | z2 e2 d2 e2 d4 c2 B2  | \
w:   |   | 
z2 d2 c2 d2 c4 B2 A2  | 
w:   | 
c2 dc B2 BA AB cd ed e2  | z2 f2 e2 f2 e4 d2 c2  | \
w:   |   | 
z2 e2 d2 e2 d4 c2 B2  | 
w:   | 
z2 d2 c2 d2 c4 B2 A2  | c2 dc B2 BA A4 GA Bc  | |


